src/blocks/sprite-svg/svg/icon-youtube.svg

<svg width="27" height="27" viewBox="0 0 27 27" fill="none" xmlns="http://www.w3.org/2000/svg">
<path d="M26.5334 7.11763C26.2029 5.68172 25.0284 4.62234 23.6145 4.46431C20.2664 4.09056 16.8775 4.08861 13.5043 4.09056C10.1305 4.08861 6.74115 4.09056 3.39301 4.46431C1.97995 4.62234 0.806307 5.68172 0.475757 7.11763C0.0052955 9.16252 0 11.3947 0 13.5001C0 15.6055 0 17.8374 0.470462 19.882C0.800454 21.3176 1.97438 22.377 3.38827 22.5353C6.73613 22.9093 10.1252 22.9113 13.499 22.9093C16.8734 22.9113 20.2616 22.9093 23.6092 22.5353C25.0223 22.3773 26.197 21.3179 26.5276 19.882C26.9983 17.8371 27 15.6052 27 13.5001C27 11.3947 27.0039 9.16252 26.5334 7.11763ZM10.0157 17.6908C10.0157 14.7041 10.0157 11.7487 10.0157 8.76174C12.8772 10.2548 15.7198 11.7378 18.5994 13.24C15.7287 14.7289 12.8847 16.203 10.0157 17.6908Z"/>
</svg>

<svg width="27" height="27" viewBox="0 0 27 27" fill="none" xmlns="http://www.w3.org/2000/svg"><path d="M26.533 7.118c-.33-1.436-1.505-2.496-2.919-2.654-3.348-.373-6.736-.375-10.11-.373-3.373-.002-6.763 0-10.111.373C1.98 4.622.806 5.682.476 7.118.006 9.163 0 11.395 0 13.5c0 2.105 0 4.337.47 6.382.33 1.436 1.504 2.495 2.918 2.653 3.348.374 6.737.376 10.111.374 3.374.002 6.763 0 10.11-.374 1.413-.158 2.588-1.217 2.919-2.653.47-2.045.472-4.277.472-6.382 0-2.105.004-4.337-.467-6.382zM10.016 17.69V8.76l8.583 4.479-8.583 4.45z"/></svg>
